X: 769
T: Airaidh Nam Badan
R: jig
M: 6/8
K: Fmajor
"Gm"{e}f2 (f//e//d//c//)|"F"{c}cA(G/F/) "F/A"F>G(A/B/)|"F"{c}c>dc {c}cAF|"Dm"{F}A2 (G/F/) "C"({F}GA)c|"Bb"d3 "Gm"{e}f2f// (f//e//d//)|
"F"{c}cA(G/F/) "Dm"F>.G.A/.B/|"Am"c>dc "F"{c}cAF|"Dm"{F}A2 (G/F/) "C"({D}GA)c|"Bb"({D}d3"C"c2)|
({B}A/B/)|"F"cdf "C"({f}g>{ag}fg)|"F"{fg}a2 (g/f/) {g}fdc|"Bb"({c}d>cd) "F/A"(cd)f|"Gm"{f}g3 "C7"d ({g}f//e//f//g//)|
"F"{g}a.f.f "Gm"g.d.d|"F/A"f.c.c "Bb"{c}d>ef|"F"{F}A2 (G/F/) "C"(GA)c|"Bb"({D}d3"C"c2)|
({B}A/B/)|"F"{c}cdf "C"({f}g>{ag}fg)|"F"{fg}a2 (g/f/) {g}fdc|"Bb"({c}d>cd) "F/A"(cd)f|"Gm"{f}g3 "C7"d ({g}f//e//f//g//)|
"F"{g}a.f.f "Gm"g.d.d|"F/A"fcA/c/ "Bb"d>ef|"F"{F}A2 (G/F/) "C"({D}GA)c|1 "Bb"{D}d3:|2 "Bb"({D}d3"C"c3)||

